icons/camera-off-line.svg

<svg xmlns="http://www.w3.org/2000/svg" width="24" height="24" fill="none"><g clip-path="url(#a)"><g><path fill="#121212" d="M19.5856 21.0001H2.99958C2.73436 21.0001 2.48001 20.8947 2.29247 20.7072C2.10493 20.5196 1.99958 20.2653 1.99958 20.0001V6.00007C1.99958 5.73485 2.10493 5.4805 2.29247 5.29296C2.48001 5.10542 2.73436 5.00007 2.99958 5.00007H3.58558L1.39258 2.80807L2.80758 1.39307L22.6066 21.1931L21.1916 22.6071L19.5856 21.0001ZM5.58558 7.00007H3.99958V19.0001H17.5856L15.4056 16.8201C14.3481 17.657 13.0201 18.0762 11.6738 17.9981C10.3275 17.92 9.05677 17.35 8.10319 16.3965C7.14961 15.4429 6.57961 14.1722 6.50151 12.8259C6.42341 11.4796 6.84266 10.1515 7.67958 9.09407L5.58558 7.00007ZM9.10958 10.5251C8.64856 11.1988 8.43757 12.0125 8.5131 12.8254C8.58863 13.6383 8.94595 14.3992 9.52321 14.9764C10.1005 15.5537 10.8614 15.911 11.6743 15.9865C12.4871 16.0621 13.3008 15.8511 13.9746 15.3901L9.10958 10.5251ZM21.9996 17.7851L19.9996 15.7851V7.00007H16.1716L14.1716 5.00007H9.82758L9.52058 5.30707L8.10658 3.89307L8.99958 3.00007H14.9996L16.9996 5.00007H20.9996C21.2648 5.00007 21.5191 5.10542 21.7067 5.29296C21.8942 5.4805 21.9996 5.73485 21.9996 6.00007V17.7861V17.7851ZM11.2626 7.05007C12.1019 6.93646 12.9562 7.01825 13.7587 7.28905C14.5613 7.55985 15.2904 8.01236 15.8894 8.61128C16.4883 9.21021 16.9408 9.93937 17.2116 10.7419C17.4824 11.5445 17.5642 12.3987 17.4506 13.2381L15.1126 10.9001C14.7778 10.2513 14.2494 9.72282 13.6006 9.38807L11.2626 7.05007Z"/></g></g><defs><clipPath id="a"><rect width="24" height="24" fill="white"/></clipPath></defs></svg>

<svg width="24" height="24" fill="none" xmlns="http://www.w3.org/2000/svg"><g clip-path="url(#a)"><path d="M19.586 21H3a1 1 0 0 1-1-1V6a1 1 0 0 1 1-1h.586L1.393 2.808l1.415-1.415 19.799 19.8-1.415 1.414L19.586 21Zm-14-14H4v12h13.586l-2.18-2.18A5.5 5.5 0 0 1 7.68 9.094L5.586 7Zm3.524 3.525a3.5 3.5 0 0 0 4.865 4.865L9.11 10.525ZM22 17.785l-2-2V7h-3.828l-2-2H9.828l-.307.307-1.414-1.414L9 3h6l2 2h4a1 1 0 0 1 1 1v11.786ZM11.263 7.05a5.5 5.5 0 0 1 6.188 6.188L15.113 10.9A3.515 3.515 0 0 0 13.6 9.388L11.263 7.05Z" /></g><defs><clipPath id="a"><path fill="#fff" d="M0 0h24v24H0z"/></clipPath></defs></svg>
